front/public/static/year-in-review-title.svg

<svg fill="none" height="96" viewBox="0 0 246 96" width="246" xmlns="http://www.w3.org/2000/svg" xmlns:xlink="http://www.w3.org/1999/xlink"><linearGradient id="a" gradientUnits="userSpaceOnUse" x1="-95.1431" x2="251.198" y1="180.386" y2="174.672"><stop offset=".341346" stop-color="#1c91ff"/><stop offset=".461538" stop-color="#8b5cf6"/><stop offset=".591346" stop-color="#e14322"/><stop offset=".716346" stop-color="#6aa668"/></linearGradient><path d="m3.9523 14v-4.416l-3.95199532-6.944h2.68799532l2.48 4.576 2.46401-4.576h2.68799l-3.93599 6.944v4.416zm7.1253 0v-11.36h7.904v2.048h-5.472v2.608h5.28v2.016h-5.28v2.64h5.6v2.048zm9.0731 0 4.096-11.36h2.88l4.096 11.36h-2.528l-.832-2.416h-4.368l-.832 2.416zm4.032-4.416h3.008l-1.504-4.384zm8.1136 4.416v-11.36h4.976c.832 0 1.552.13867 2.16.416.6187.27733 1.0933.672 1.424 1.184.3307.50133.496 1.09867.496 1.792 0 .52267-.112.98667-.336 1.392-.2133.40533-.512.736-.896.992-.3733.256-.8053.416-1.296.48l-.048-.144c.7573 0 1.3333.16533 1.728.496.3947.32.6187.816.672 1.488l.288 3.264h-2.48l-.208-2.88c-.032-.4373-.1707-.7573-.416-.96-.2347-.21333-.64-.32-1.216-.32h-2.416v4.16zm2.432-6.192h2.272c.5867 0 1.04-.13333 1.36-.4.3307-.27733.496-.66667.496-1.168 0-.512-.1653-.896-.496-1.152-.3307-.26667-.8107-.4-1.44-.4h-2.192zm12.3649 6.192v-11.36h2.432v11.36zm4.5781 0v-11.36h2.688l4.512 7.84v-7.84h2.432v11.36h-2.72l-4.48-7.568v7.568zm15.6406 0v-11.36h4.976c.832 0 1.552.13867 2.16.416.6187.27733 1.0934.672 1.424 1.184.3307.50133.496 1.09867.496 1.792 0 .52267-.112.98667-.336 1.392-.2133.40533-.512.736-.896.992-.3733.256-.8053.416-1.296.48l-.048-.144c.7574 0 1.3334.16533 1.728.496.3947.32.6187.816.672 1.488l.288 3.264h-2.48l-.208-2.88c-.032-.4373-.1706-.7573-.416-.96-.2346-.21333-.64-.32-1.216-.32h-2.416v4.16zm2.432-6.192h2.272c.5867 0 1.04-.13333 1.36-.4.3307-.27733.496-.66667.496-1.168 0-.512-.1653-.896-.496-1.152-.3306-.26667-.8106-.4-1.44-.4h-2.192zm8.7243 6.192v-11.36h7.904v2.048h-5.472v2.608h5.28v2.016h-5.28v2.64h5.6v2.048zm13.2941 0-4.096-11.36h2.512l3.024 8.624 3.024-8.624h2.512l-4.112 11.36zm8.034 0v-11.36h2.4317v11.36zm4.5777 0v-11.36h7.904v2.048h-5.472v2.608h5.28v2.016h-5.28v2.64h5.6v2.048zm12.559 0-3.072-11.36h2.544l1.952 8 1.968-8h2.128l1.984 8 1.936-8h2.544l-3.056 11.36h-2.624l-1.856-7.264-1.856 7.264z" fill="#1c222d"/><path d="m3.9523 14v-4.416l-3.95199532-6.944h2.68799532l2.48 4.576 2.46401-4.576h2.68799l-3.93599 6.944v4.416zm7.1253 0v-11.36h7.904v2.048h-5.472v2.608h5.28v2.016h-5.28v2.64h5.6v2.048zm9.0731 0 4.096-11.36h2.88l4.096 11.36h-2.528l-.832-2.416h-4.368l-.832 2.416zm4.032-4.416h3.008l-1.504-4.384zm8.1136 4.416v-11.36h4.976c.832 0 1.552.13867 2.16.416.6187.27733 1.0933.672 1.424 1.184.3307.50133.496 1.09867.496 1.792 0 .52267-.112.98667-.336 1.392-.2133.40533-.512.736-.896.992-.3733.256-.8053.416-1.296.48l-.048-.144c.7573 0 1.3333.16533 1.728.496.3947.32.6187.816.672 1.488l.288 3.264h-2.48l-.208-2.88c-.032-.4373-.1707-.7573-.416-.96-.2347-.21333-.64-.32-1.216-.32h-2.416v4.16zm2.432-6.192h2.272c.5867 0 1.04-.13333 1.36-.4.3307-.27733.496-.66667.496-1.168 0-.512-.1653-.896-.496-1.152-.3307-.26667-.8107-.4-1.44-.4h-2.192zm12.3649 6.192v-11.36h2.432v11.36zm4.5781 0v-11.36h2.688l4.512 7.84v-7.84h2.432v11.36h-2.72l-4.48-7.568v7.568zm15.6406 0v-11.36h4.976c.832 0 1.552.13867 2.16.416.6187.27733 1.0934.672 1.424 1.184.3307.50133.496 1.09867.496 1.792 0 .52267-.112.98667-.336 1.392-.2133.40533-.512.736-.896.992-.3733.256-.8053.416-1.296.48l-.048-.144c.7574 0 1.3334.16533 1.728.496.3947.32.6187.816.672 1.488l.288 3.264h-2.48l-.208-2.88c-.032-.4373-.1706-.7573-.416-.96-.2346-.21333-.64-.32-1.216-.32h-2.416v4.16zm2.432-6.192h2.272c.5867 0 1.04-.13333 1.36-.4.3307-.27733.496-.66667.496-1.168 0-.512-.1653-.896-.496-1.152-.3306-.26667-.8106-.4-1.44-.4h-2.192zm8.7243 6.192v-11.36h7.904v2.048h-5.472v2.608h5.28v2.016h-5.28v2.64h5.6v2.048zm13.2941 0-4.096-11.36h2.512l3.024 8.624 3.024-8.624h2.512l-4.112 11.36zm8.034 0v-11.36h2.4317v11.36zm4.5777 0v-11.36h7.904v2.048h-5.472v2.608h5.28v2.016h-5.28v2.64h5.6v2.048zm12.559 0-3.072-11.36h2.544l1.952 8 1.968-8h2.128l1.984 8 1.936-8h2.544l-3.056 11.36h-2.624l-1.856-7.264-1.856 7.264z" fill="url(#a)"/><path d="m217.977 95.6722c-5.602 0-10.336-.8372-14.199-2.5115-3.864-1.6742-6.858-4.0569-8.983-7.1478-2.125-3.091-3.349-6.6972-3.671-10.8185l14.875-.6761c.58 2.9622 1.868 5.1838 3.864 6.6649 2.061 1.4167 4.765 2.125 8.114 2.125 3.735 0 6.665-1.0625 8.79-3.1875 2.189-2.1251 3.284-5.0551 3.284-8.79 0-2.447-.515-4.5721-1.545-6.3752-.966-1.803-2.351-3.2197-4.154-4.2501-1.803-1.0303-3.96-1.5454-6.472-1.5454-2.769 0-5.151.6117-7.148 1.8352-1.996 1.2235-3.38 2.769-4.153 4.6365h-14.682l4.733-40.0862h43.757v12.364h-31.297l-2.511 19.9947-1.642-1.4489c1.095-1.6742 2.447-3.0909 4.057-4.2501 1.674-1.2235 3.606-2.1572 5.795-2.8012 2.19-.7083 4.605-1.0625 7.245-1.0625 4.765 0 8.854.9982 12.267 2.9944 3.478 1.9963 6.15 4.7331 8.017 8.2104 1.868 3.4774 2.802 7.4055 2.802 11.7844 0 4.9584-1.127 9.2729-3.381 12.9435-2.254 3.6705-5.409 6.5039-9.466 8.5002-4.057 1.9318-8.822 2.8978-14.296 2.8978z" fill="#fe9c1a"/><path d="m128.211 94.1266c0-5.86.773-10.9472 2.318-15.2617 1.61-4.3145 4.186-8.1782 7.728-11.5912 3.606-3.4129 8.371-6.6649 14.295-9.7559 3.156-1.6099 5.635-3.0266 7.438-4.2501 1.868-1.2879 3.188-2.5758 3.96-3.8637.773-1.2879 1.16-2.8012 1.16-4.5399 0-1.6743-.387-3.1232-1.16-4.3467-.708-1.2879-1.77-2.286-3.187-2.9944-1.417-.7727-3.188-1.1591-5.313-1.1591-3.477 0-6.246 1.0303-8.307 3.091-1.996 1.9963-3.252 4.9263-3.767 8.79l-15.068-.8694c.643-7.2766 3.284-12.9756 7.92-17.0969 4.701-4.1857 11.044-6.2786 19.029-6.2786 5.28 0 9.756.8693 13.426 2.608 3.735 1.7387 6.569 4.1535 8.501 7.2445 1.996 3.091 2.994 6.6971 2.994 10.8184 0 3.6062-.612 6.6328-1.835 9.0798-1.159 2.447-3.059 4.7009-5.699 6.7615-2.64 2.0607-6.118 4.2501-10.432 6.5684-5.538 2.9621-9.627 5.6989-12.268 8.2104-2.64 2.447-4.057 4.6042-4.25 6.4717h34.484v12.3639z" fill="#0c84fe"/><path d="m90.1027 95.6721c-6.0532 0-11.2692-1.4167-15.6481-4.2501-4.3789-2.8978-7.7597-7.0191-10.1423-12.3639-2.3182-5.3448-3.4773-11.72-3.4773-19.1254 0-7.4055 1.1913-13.7807 3.5739-19.1255 2.3826-5.4092 5.7312-9.5627 10.0457-12.4605 4.3789-2.8978 9.5949-4.3467 15.6481-4.3467 5.9888 0 11.1403 1.4489 15.4553 4.3467 4.378 2.8978 7.759 7.0513 10.142 12.4605 2.382 5.3448 3.574 11.72 3.574 19.1255 0 7.341-1.192 13.684-3.574 19.0288-2.318 5.3448-5.667 9.4661-10.046 12.3639s-9.5625 4.3467-15.5513 4.3467zm0-12.3639c4.5077 0 7.9528-1.9641 10.3353-5.8922 2.447-3.9281 3.671-9.7559 3.671-17.4833 0-5.2161-.548-9.5628-1.642-13.0401-1.031-3.4774-2.6084-6.0854-4.7334-7.8241-2.0607-1.803-4.6043-2.7046-7.6309-2.7046-3.091 0-5.699.9016-7.8241 2.7046-2.0606 1.7387-3.6383 4.3467-4.733 7.8241-1.0303 3.4773-1.5455 7.824-1.5455 13.0401 0 7.7274 1.1913 13.5552 3.5739 17.4833 2.4471 3.9281 5.9566 5.8922 10.5287 5.8922z" fill="#e14322"/><path d="m.112305 94.1266c0-5.86.772745-10.9472 2.318235-15.2617 1.60989-4.3145 4.1857-8.1782 7.72746-11.5912 3.6061-3.4129 8.3714-6.6649 14.2958-9.7559 3.1554-1.6099 5.6346-3.0266 7.4377-4.2501 1.8674-1.2879 3.1875-2.5758 3.9603-3.8637.7727-1.2879 1.1591-2.8012 1.1591-4.5399 0-1.6743-.3864-3.1232-1.1591-4.3467-.7084-1.2879-1.7709-2.286-3.1876-2.9944-1.4167-.7727-3.1876-1.1591-5.3126-1.1591-3.4774 0-6.2464 1.0303-8.307 3.091-1.9963 1.9963-3.252 4.9263-3.7672 8.79l-15.068502-.8694c.643955-7.2766 3.284162-12.9756 7.920642-17.0969 4.70086-4.1857 11.04386-6.2786 19.02886-6.2786 5.2804 0 9.7559.8693 13.4264 2.608 3.735 1.7387 6.5684 4.1535 8.5002 7.2445 1.9963 3.091 2.9944 6.6971 2.9944 10.8184 0 3.6062-.6117 6.6328-1.8352 9.0798-1.1592 2.447-3.0588 4.7009-5.699 6.7615-2.6403 2.0607-6.1176 4.2501-10.4321 6.5684-5.538 2.9621-9.6271 5.6989-12.2673 8.2104-2.6402 2.447-4.0569 4.6042-4.2501 6.4717h34.4837v12.3639z" fill="#418b5c"/><path d="m217.977 95.6721c-5.602 0-10.336-.8371-14.199-2.5114-3.864-1.6743-6.858-4.0569-8.983-7.1479s-3.349-6.6971-3.671-10.8185l14.875-.6761c.58 2.9622 1.868 5.1838 3.864 6.6649 2.061 1.4167 4.765 2.1251 8.114 2.1251 3.735 0 6.665-1.0626 8.79-3.1876 2.189-2.1251 3.284-5.055 3.284-8.79 0-2.447-.515-4.5721-1.545-6.3751-.966-1.8031-2.351-3.2198-4.154-4.2501-.485-.277-.995-.5167-1.531-.7192h-9.993c-.74.2701-1.439.6064-2.096 1.009-1.996 1.2235-3.38 2.769-4.153 4.6364h-14.682l.666-5.6454h20.265 9.993 19.727c1.715 3.3677 2.572 7.1492 2.572 11.3444 0 4.9585-1.127 9.273-3.381 12.9435s-5.409 6.5039-9.466 8.5002c-4.057 1.9319-8.822 2.8978-14.296 2.8978z" fill="#ffc170"/><path d="m74.4546 91.422c4.3789 2.8334 9.5949 4.2501 15.6481 4.2501 5.9888 0 11.1723-1.4489 15.5513-4.3467s7.728-7.0191 10.046-12.3639c2.383-5.3449 3.574-11.6878 3.574-19.0289h-15.165c0 7.7275-1.224 13.5553-3.671 17.4834-2.3825 3.9281-5.8276 5.8922-10.3353 5.8922-4.5721 0-8.0816-1.9641-10.5287-5.8922-2.3826-3.9281-3.5739-9.7559-3.5739-17.4834h-15.1651c0 7.4055 1.1591 13.7806 3.4773 19.1255 2.3826 5.3448 5.7634 9.4661 10.1423 12.3639z" fill="#ffc3df"/><path d="m2.43054 78.865c-1.54549 4.3145-2.318235 9.4018-2.318235 15.2617h51.967095v-12.3639h-34.4837c.1932-1.8674 1.6099-4.0247 4.2501-6.4717 2.6402-2.5114 6.7293-5.2482 12.2673-8.2104 4.3145-2.3183 7.7918-4.5077 10.4321-6.5684h-25.3864c-3.5399 2.1789-6.5402 4.4328-9.0008 6.7616-3.54176 3.4129-6.11757 7.2766-7.72746 11.5911z" fill="#b2c93d"/><path d="m130.529 78.865c-1.545 4.3145-2.318 9.4018-2.318 15.2617h51.967v-12.3639h-34.484c.193-1.8674 1.61-4.0247 4.25-6.4717 2.641-2.5114 6.73-5.2482 12.268-8.2104 4.314-2.3183 7.792-4.5077 10.432-6.5684h-25.387c-3.539 2.1789-6.54 4.4328-9 6.7616-3.542 3.4129-6.118 7.2766-7.728 11.5911z" fill="#9fdbff"/></svg>

<svg width="246" height="96" viewBox="0 0 246 96" fill="none" xmlns="http://www.w3.org/2000/svg">
<path d="M3.9523 14V9.584L0.000304684 2.64H2.6883L5.1683 7.216L7.63231 2.64H10.3203L6.38431 9.584V14H3.9523ZM11.0776 14V2.64H18.9816V4.688H13.5096V7.296H18.7896V9.312H13.5096V11.952H19.1096V14H11.0776ZM20.1507 14L24.2467 2.64H27.1267L31.2227 14H28.6947L27.8627 11.584H23.4947L22.6627 14H20.1507ZM24.1827 9.584H27.1907L25.6867 5.2L24.1827 9.584ZM32.2963 14V2.64H37.2723C38.1043 2.64 38.8243 2.77867 39.4323 3.056C40.051 3.33333 40.5256 3.728 40.8563 4.24C41.187 4.74133 41.3523 5.33867 41.3523 6.032C41.3523 6.55467 41.2403 7.01867 41.0163 7.424C40.803 7.82933 40.5043 8.16 40.1203 8.416C39.747 8.672 39.315 8.832 38.8243 8.896L38.7763 8.752C39.5336 8.752 40.1096 8.91733 40.5043 9.248C40.899 9.568 41.123 10.064 41.1763 10.736L41.4643 14H38.9843L38.7763 11.12C38.7443 10.6827 38.6056 10.3627 38.3603 10.16C38.1256 9.94667 37.7203 9.84 37.1443 9.84H34.7283V14H32.2963ZM34.7283 7.808H37.0003C37.587 7.808 38.0403 7.67467 38.3603 7.408C38.691 7.13067 38.8563 6.74133 38.8563 6.24C38.8563 5.728 38.691 5.344 38.3603 5.088C38.0296 4.82133 37.5496 4.688 36.9203 4.688H34.7283V7.808ZM47.0932 14V2.64H49.5252V14H47.0932ZM51.6713 14V2.64H54.3593L58.8713 10.48V2.64H61.3033V14H58.5833L54.1033 6.432V14H51.6713ZM67.3119 14V2.64H72.2879C73.1199 2.64 73.8399 2.77867 74.4479 3.056C75.0666 3.33333 75.5413 3.728 75.8719 4.24C76.2026 4.74133 76.3679 5.33867 76.3679 6.032C76.3679 6.55467 76.2559 7.01867 76.0319 7.424C75.8186 7.82933 75.5199 8.16 75.1359 8.416C74.7626 8.672 74.3306 8.832 73.8399 8.896L73.7919 8.752C74.5493 8.752 75.1253 8.91733 75.5199 9.248C75.9146 9.568 76.1386 10.064 76.1919 10.736L76.4799 14H73.9999L73.7919 11.12C73.7599 10.6827 73.6213 10.3627 73.3759 10.16C73.1413 9.94667 72.7359 9.84 72.1599 9.84H69.7439V14H67.3119ZM69.7439 7.808H72.0159C72.6026 7.808 73.0559 7.67467 73.3759 7.408C73.7066 7.13067 73.8719 6.74133 73.8719 6.24C73.8719 5.728 73.7066 5.344 73.3759 5.088C73.0453 4.82133 72.5653 4.688 71.9359 4.688H69.7439V7.808ZM78.4682 14V2.64H86.3722V4.688H80.9002V7.296H86.1802V9.312H80.9002V11.952H86.5002V14H78.4682ZM91.7623 14L87.6663 2.64H90.1783L93.2023 11.264L96.2263 2.64H98.7383L94.6263 14H91.7623ZM99.7963 14V2.64H102.228V14H99.7963ZM104.374 14V2.64H112.278V4.688H106.806V7.296H112.086V9.312H106.806V11.952H112.406V14H104.374ZM116.933 14L113.861 2.64H116.405L118.357 10.64L120.325 2.64H122.453L124.437 10.64L126.373 2.64H128.917L125.861 14H123.237L121.381 6.736L119.525 14H116.933Z" fill="#1C222D"/>
<path d="M3.9523 14V9.584L0.000304684 2.64H2.6883L5.1683 7.216L7.63231 2.64H10.3203L6.38431 9.584V14H3.9523ZM11.0776 14V2.64H18.9816V4.688H13.5096V7.296H18.7896V9.312H13.5096V11.952H19.1096V14H11.0776ZM20.1507 14L24.2467 2.64H27.1267L31.2227 14H28.6947L27.8627 11.584H23.4947L22.6627 14H20.1507ZM24.1827 9.584H27.1907L25.6867 5.2L24.1827 9.584ZM32.2963 14V2.64H37.2723C38.1043 2.64 38.8243 2.77867 39.4323 3.056C40.051 3.33333 40.5256 3.728 40.8563 4.24C41.187 4.74133 41.3523 5.33867 41.3523 6.032C41.3523 6.55467 41.2403 7.01867 41.0163 7.424C40.803 7.82933 40.5043 8.16 40.1203 8.416C39.747 8.672 39.315 8.832 38.8243 8.896L38.7763 8.752C39.5336 8.752 40.1096 8.91733 40.5043 9.248C40.899 9.568 41.123 10.064 41.1763 10.736L41.4643 14H38.9843L38.7763 11.12C38.7443 10.6827 38.6056 10.3627 38.3603 10.16C38.1256 9.94667 37.7203 9.84 37.1443 9.84H34.7283V14H32.2963ZM34.7283 7.808H37.0003C37.587 7.808 38.0403 7.67467 38.3603 7.408C38.691 7.13067 38.8563 6.74133 38.8563 6.24C38.8563 5.728 38.691 5.344 38.3603 5.088C38.0296 4.82133 37.5496 4.688 36.9203 4.688H34.7283V7.808ZM47.0932 14V2.64H49.5252V14H47.0932ZM51.6713 14V2.64H54.3593L58.8713 10.48V2.64H61.3033V14H58.5833L54.1033 6.432V14H51.6713ZM67.3119 14V2.64H72.2879C73.1199 2.64 73.8399 2.77867 74.4479 3.056C75.0666 3.33333 75.5413 3.728 75.8719 4.24C76.2026 4.74133 76.3679 5.33867 76.3679 6.032C76.3679 6.55467 76.2559 7.01867 76.0319 7.424C75.8186 7.82933 75.5199 8.16 75.1359 8.416C74.7626 8.672 74.3306 8.832 73.8399 8.896L73.7919 8.752C74.5493 8.752 75.1253 8.91733 75.5199 9.248C75.9146 9.568 76.1386 10.064 76.1919 10.736L76.4799 14H73.9999L73.7919 11.12C73.7599 10.6827 73.6213 10.3627 73.3759 10.16C73.1413 9.94667 72.7359 9.84 72.1599 9.84H69.7439V14H67.3119ZM69.7439 7.808H72.0159C72.6026 7.808 73.0559 7.67467 73.3759 7.408C73.7066 7.13067 73.8719 6.74133 73.8719 6.24C73.8719 5.728 73.7066 5.344 73.3759 5.088C73.0453 4.82133 72.5653 4.688 71.9359 4.688H69.7439V7.808ZM78.4682 14V2.64H86.3722V4.688H80.9002V7.296H86.1802V9.312H80.9002V11.952H86.5002V14H78.4682ZM91.7623 14L87.6663 2.64H90.1783L93.2023 11.264L96.2263 2.64H98.7383L94.6263 14H91.7623ZM99.7963 14V2.64H102.228V14H99.7963ZM104.374 14V2.64H112.278V4.688H106.806V7.296H112.086V9.312H106.806V11.952H112.406V14H104.374ZM116.933 14L113.861 2.64H116.405L118.357 10.64L120.325 2.64H122.453L124.437 10.64L126.373 2.64H128.917L125.861 14H123.237L121.381 6.736L119.525 14H116.933Z" fill="url(#paint0_linear_30_758)"/>
<path d="M217.977 95.6722C212.375 95.6722 207.641 94.835 203.778 93.1607C199.914 91.4865 196.92 89.1038 194.795 86.0129C192.67 82.9219 191.446 79.3157 191.124 75.1944L205.999 74.5183C206.579 77.4805 207.867 79.7021 209.863 81.1832C211.924 82.5999 214.628 83.3082 217.977 83.3082C221.712 83.3082 224.642 82.2457 226.767 80.1207C228.956 77.9956 230.051 75.0656 230.051 71.3307C230.051 68.8837 229.536 66.7586 228.506 64.9555C227.54 63.1525 226.155 61.7358 224.352 60.7054C222.549 59.6751 220.392 59.16 217.88 59.16C215.111 59.16 212.729 59.7717 210.732 60.9952C208.736 62.2187 207.352 63.7642 206.579 65.6317H191.897L196.63 25.5455H240.387V37.9095H209.09L206.579 57.9042L204.937 56.4553C206.032 54.7811 207.384 53.3644 208.994 52.2052C210.668 50.9817 212.6 50.048 214.789 49.404C216.979 48.6957 219.394 48.3415 222.034 48.3415C226.799 48.3415 230.888 49.3397 234.301 51.3359C237.779 53.3322 240.451 56.069 242.318 59.5463C244.186 63.0237 245.12 66.9518 245.12 71.3307C245.12 76.2891 243.993 80.6036 241.739 84.2742C239.485 87.9447 236.33 90.7781 232.273 92.7744C228.216 94.7062 223.451 95.6722 217.977 95.6722Z" fill="#FE9C1A"/>
<path d="M128.211 94.1266C128.211 88.2666 128.984 83.1794 130.529 78.8649C132.139 74.5504 134.715 70.6867 138.257 67.2737C141.863 63.8608 146.628 60.6088 152.552 57.5178C155.708 55.9079 158.187 54.4912 159.99 53.2677C161.858 51.9798 163.178 50.6919 163.95 49.404C164.723 48.1161 165.11 46.6028 165.11 44.8641C165.11 43.1898 164.723 41.7409 163.95 40.5174C163.242 39.2295 162.18 38.2314 160.763 37.523C159.346 36.7503 157.575 36.3639 155.45 36.3639C151.973 36.3639 149.204 37.3942 147.143 39.4549C145.147 41.4512 143.891 44.3812 143.376 48.2449L128.308 47.3755C128.951 40.0989 131.592 34.3999 136.228 30.2786C140.929 26.0929 147.272 24 155.257 24C160.537 24 165.013 24.8693 168.683 26.608C172.418 28.3467 175.252 30.7615 177.184 33.8525C179.18 36.9435 180.178 40.5496 180.178 44.6709C180.178 48.2771 179.566 51.3037 178.343 53.7507C177.184 56.1977 175.284 58.4516 172.644 60.5122C170.004 62.5729 166.526 64.7623 162.212 67.0806C156.674 70.0427 152.585 72.7795 149.944 75.291C147.304 77.738 145.887 79.8952 145.694 81.7627H180.178V94.1266H128.211Z" fill="#0C84FE"/>
<path d="M90.1027 95.6721C84.0495 95.6721 78.8335 94.2554 74.4546 91.422C70.0757 88.5242 66.6949 84.4029 64.3123 79.0581C61.9941 73.7133 60.835 67.3381 60.835 59.9327C60.835 52.5272 62.0263 46.152 64.4089 40.8072C66.7915 35.398 70.1401 31.2445 74.4546 28.3467C78.8335 25.4489 84.0495 24 90.1027 24C96.0915 24 101.243 25.4489 105.558 28.3467C109.936 31.2445 113.317 35.398 115.7 40.8072C118.082 46.152 119.274 52.5272 119.274 59.9327C119.274 67.2737 118.082 73.6167 115.7 78.9615C113.382 84.3063 110.033 88.4276 105.654 91.3254C101.275 94.2232 96.0915 95.6721 90.1027 95.6721ZM90.1027 83.3082C94.6104 83.3082 98.0555 81.3441 100.438 77.416C102.885 73.4879 104.109 67.6601 104.109 59.9327C104.109 54.7166 103.561 50.3699 102.467 46.8926C101.436 43.4152 99.8586 40.8072 97.7336 39.0685C95.6729 37.2655 93.1293 36.3639 90.1027 36.3639C87.0117 36.3639 84.4037 37.2655 82.2786 39.0685C80.218 40.8072 78.6403 43.4152 77.5456 46.8926C76.5153 50.3699 76.0001 54.7166 76.0001 59.9327C76.0001 67.6601 77.1914 73.4879 79.574 77.416C82.0211 81.3441 85.5306 83.3082 90.1027 83.3082Z" fill="#E14322"/>
<path d="M0.112305 94.1266C0.112305 88.2666 0.88505 83.1794 2.43054 78.8649C4.04043 74.5504 6.61624 70.6867 10.158 67.2737C13.7641 63.8608 18.5294 60.6088 24.4538 57.5178C27.6092 55.9079 30.0884 54.4912 31.8915 53.2677C33.7589 51.9798 35.079 50.6919 35.8518 49.404C36.6245 48.1161 37.0109 46.6028 37.0109 44.8641C37.0109 43.1898 36.6245 41.7409 35.8518 40.5174C35.1434 39.2295 34.0809 38.2314 32.6642 37.523C31.2475 36.7503 29.4766 36.3639 27.3516 36.3639C23.8742 36.3639 21.1052 37.3942 19.0446 39.4549C17.0483 41.4512 15.7926 44.3812 15.2774 48.2449L0.208898 47.3755C0.852853 40.0989 3.49306 34.3999 8.12954 30.2786C12.8304 26.0929 19.1734 24 27.1584 24C32.4388 24 36.9143 24.8693 40.5848 26.608C44.3198 28.3467 47.1532 30.7615 49.085 33.8525C51.0813 36.9435 52.0794 40.5496 52.0794 44.6709C52.0794 48.2771 51.4677 51.3037 50.2442 53.7507C49.085 56.1977 47.1854 58.4516 44.5452 60.5122C41.9049 62.5729 38.4276 64.7623 34.1131 67.0806C28.5751 70.0427 24.486 72.7795 21.8458 75.291C19.2056 77.738 17.7889 79.8952 17.5957 81.7627H52.0794V94.1266H0.112305Z" fill="#418B5C"/>
<path d="M217.977 95.6721C212.375 95.6721 207.641 94.835 203.778 93.1607C199.914 91.4864 196.92 89.1038 194.795 86.0128C192.67 82.9218 191.446 79.3157 191.124 75.1943L205.999 74.5182C206.579 77.4804 207.867 79.702 209.863 81.1831C211.924 82.5998 214.628 83.3082 217.977 83.3082C221.712 83.3082 224.642 82.2456 226.767 80.1206C228.956 77.9955 230.051 75.0656 230.051 71.3306C230.051 68.8836 229.536 66.7585 228.506 64.9555C227.54 63.1524 226.155 61.7357 224.352 60.7054C223.867 60.4284 223.357 60.1887 222.821 59.9862H212.828C212.088 60.2563 211.389 60.5926 210.732 60.9952C208.736 62.2187 207.352 63.7642 206.579 65.6316H191.897L192.563 59.9862H212.828H222.821H242.548C244.263 63.3539 245.12 67.1354 245.12 71.3306C245.12 76.2891 243.993 80.6036 241.739 84.2741C239.485 87.9446 236.33 90.778 232.273 92.7743C228.216 94.7062 223.451 95.6721 217.977 95.6721Z" fill="#FFC170"/>
<path d="M74.4546 91.422C78.8335 94.2554 84.0495 95.6721 90.1027 95.6721C96.0915 95.6721 101.275 94.2232 105.654 91.3254C110.033 88.4276 113.382 84.3063 115.7 78.9615C118.083 73.6166 119.274 67.2737 119.274 59.9326H104.109C104.109 67.6601 102.885 73.4879 100.438 77.416C98.0555 81.3441 94.6104 83.3082 90.1027 83.3082C85.5306 83.3082 82.0211 81.3441 79.574 77.416C77.1914 73.4879 76.0001 67.6601 76.0001 59.9326H60.835C60.835 67.3381 61.9941 73.7132 64.3123 79.0581C66.6949 84.4029 70.0757 88.5242 74.4546 91.422Z" fill="#FFC3DF"/>
<path d="M2.43054 78.865C0.88505 83.1795 0.112305 88.2668 0.112305 94.1267H52.0794V81.7628H17.5957C17.7889 79.8954 19.2056 77.7381 21.8458 75.2911C24.486 72.7797 28.5751 70.0429 34.1131 67.0807C38.4276 64.7624 41.9049 62.573 44.5452 60.5123H19.1588C15.6189 62.6912 12.6186 64.9451 10.158 67.2739C6.61624 70.6868 4.04043 74.5505 2.43054 78.865Z" fill="#B2C93D"/>
<path d="M130.529 78.865C128.984 83.1795 128.211 88.2668 128.211 94.1267H180.178V81.7628H145.694C145.887 79.8954 147.304 77.7381 149.944 75.2911C152.585 72.7797 156.674 70.0429 162.212 67.0807C166.526 64.7624 170.004 62.573 172.644 60.5123H147.257C143.718 62.6912 140.717 64.9451 138.257 67.2739C134.715 70.6868 132.139 74.5505 130.529 78.865Z" fill="#9FDBFF"/>
<defs>
<linearGradient id="paint0_linear_30_758" x1="-95.1431" y1="180.386" x2="251.198" y2="174.672" gradientUnits="userSpaceOnUse">
<stop offset="0.341346" stop-color="#1C91FF"/>
<stop offset="0.461538" stop-color="#8B5CF6"/>
<stop offset="0.591346" stop-color="#E14322"/>
<stop offset="0.716346" stop-color="#6AA668"/>
</linearGradient>
</defs>
</svg>
